public/avatar/hat/261.svg

<svg xmlns:xlink="http://www.w3.org/1999/xlink" height="92.9" width="100.7" xmlns="http://www.w3.org/2000/svg"><use height="32.45" transform="translate(14.8 38.95)" width="48.15" xlink:href="#a"/><defs><use height="19.8" width="28.95" xlink:href="#b" id="g"/><use height="32.45" width="48.15" xlink:href="#c" id="h"/><use height="29.65" width="45.05" xlink:href="#d" id="i"/><use height="26.8" width="40.85" xlink:href="#e" id="j"/><use height="23.85" width="35.85" xlink:href="#f" id="k"/><path d="m2.35-6.15-2.25.2-1.25-1v1.3l-3.8 1.1-.55-1-.4 2.1-3.2.65.85 7.25-2.75-2.1q-.3 1.05.2 4.25.45 2.65.05 2.45-.85-.45-2.6-3.25-.05.75-.65 1.9l-.5-2.3q1.6-6.8 6.2-11.3 5.4-5.35 12.05-3.55Q9.8-7.85 12.7-.8q1.5 3.55 1.75 6.75l-.55 3.6q-.8 1.05-1-1.25-.15-2.35-4.4-10.2Q8.35 2.45 8 .85q-.2-.95-2.95-4.1l-2.7-2.9" fill="#8c5103" fill-rule="evenodd" transform="translate(14.5 9.9)" id="b"/><path d="M.15-13.5q.35 1.6.55 1.45l1.35-1.85q-.25.95.55 3.5.7 2.15 1.1 2.65.75 1.05 4.25 3.35l6.5 5.35q3.75 2.5 8.85 2.2-.15.9-2.35 2.2Q19 6.5 18.2 6.6h-1.05q-.4.15.15 1.15.8 1.65 6.8.95-.3 2.15-2.9 3.3-2 .8-1.75.95 1.15.65 4.2 1.2-1.95 3.35-8 1.35-.35-.05-.9-1.1-.5-1.05-.45-1.55.05-.8-2.3-6.05Q9.35.85 7.15-1.8 2.6-7.3-6.15-2.35-10.6.15-14.2 9.9l-.05 2.35q-.1 1.8-.55 1.95-3.9 1.4-7.9-.75 1.25-.6 4.4-2.55l-2.85-.3q-1.7-.55-2.9-4.1 1.15 1.8 4.85.85 2.05-.5 3.75-2.95 1.6-2.25 1.05-3l-2.05-5.7q.15.5 4.1 1.5 2.5.6 6.5-3.6.4-.45 3.25-5.75 2.5-4.7 2.45-3.95-.1.95.3 2.6" fill-rule="evenodd" transform="translate(24.05 16.2)" id="c"/><path d="M.55-10.2q.45-.1.85-2.45 0 3.5 2.1 5.7.85.85 2.7 1.8 1.8 1 3.3 2.5 5.25 5.35 9.55 5.95l2.9-.25-2.15 1.6q-1.4.7-3.3.5-1-.15-.85 1.1.45 4.5 6.9 2.65-1.85 2.9-4.5 2.3L15.8 10q.75 3.9 6.5 3.8-.85.8-2.7 1-1.85.15-3.05-.45-1.45-.8-2.2-2.6l-.45-1.7-.35 3.05q-.5-4.9-4.75-11.05L6.45-.9q.7 1.65 1.45 5-.6-1.55-5.75-6.8l-2.4.3-1.1-1.95-.4 2.25-3.1 1.2q-.15-2.6-.5-2.5L-6.7.15l-3 .95.85 6.8q-2.35-3-2.5-2.75-1.3 3.1.4 7.2-.8-.3-1.7-2.55l-.7-2.2-1.2 3.95q-1.05 2.3-6.7 1.4.55.1 5.15-2.75.5-1.3-1.6-.8-3.75.9-4.8-1.75.4.85 2.65.45 3.35-.6 6.1-4.75.95-1.45.2-3.2l-1.25-2.3q-.8-1.45-.15-.9.85.8 3.6.8 1.5 0 3.1-1.45l2.95-2.9q2.25-1.95 4.5-8.2-.05.6.5 2.6.55 2.05.85 2" fill="#e28d05" fill-rule="evenodd" transform="translate(22.5 14.8)" id="d"/><path d="M2.75-4Q2-4.9-.1-5.75q-.4-.15.75-.7l1.65-.2q.8.5 2.25 2.2l-.8-.1q-.85 0-1 .55m.7-2.5 2.45.45q1.65 1.1 2.35 1.9L5.8-4.4q-.9-1.15-2.35-2.1m9.75 9.2.9.45.55 1.6-.95-.15q.05-.7-.5-1.9m-.9-.2.6 2.2q-.85-.25-1.05-.65l-1.5-2.6L12.3 2.5M14.9.9 17.2 2l.75 1-1.95.1L14.9.9m1.4 7.4.35-.7 1.2.75-.2.5-1.35-.55m-1.1 2.5.65-.6 1.05 1.35-.3.4-1.4-1.15M.85-4.7l-.95.15-.25-.4L-.3-5l.5-.05.65.35m-4.3-.45 1.35.05-.05.75-1.05.05-.25-.85m-.7.3.35.7h-.1l-.65.4-.15-.9.55-.2M-7-2.6l-1.75.65 1.15-1.5.6-.15v1m-4.5 3.75.5-.6.65-.05.15 1.65-.75.7-.55-1.7m-.9 1 .1 2.25q-.3.95-.45.75l-.2-2 .55-1m-.8-3.95q0-1.2.35-1.25l1.55-.05-1.25 2.5-.65-1.2m-3.1 7.5 1.65-1.5-.15 2.1q-.45.5-1.65.95l.15-1.55m-.45 3.85 1.75-1.1-1.2 2.05-1.7.55 1.15-1.5M1-10.6l.35.05.3.55-.8-.05.15-.55m-3.2-1.15q.85-.45 1.55.35.45.4.5 1l-2.45-.3.4-1.05" transform="translate(17.9 11.9)" id="f" fill="#f9ebb2" fill-rule="evenodd"/><g id="a" transform="translate(24.05 16.2)"><use height="19.8" transform="translate(-14.55 -5)" width="28.95" xlink:href="#g"/><use height="32.45" transform="translate(-24.05 -16.2)" width="48.15" xlink:href="#h"/><use height="29.65" transform="translate(-22.45 -14.2)" width="45.05" xlink:href="#i"/><use height="26.8" transform="translate(-20.8 -11.9)" width="40.85" xlink:href="#j"/><use height="23.85" transform="translate(-17.85 -9.8)" width="35.85" xlink:href="#k"/></g><g id="e" fill="#f9ca03" fill-rule="evenodd"><path d="M-2.7-7.3q2.65-.95 5.4 1.25 4.35 3.5 4.75 7.2-1.2-1.9-3.3-3.75-4.2-3.7-8.5-3.4-.3.05.25-.5.55-.5 1.4-.8" transform="translate(20.45 13.4)"/><path d="M.25-7.8Q8.8-6.15 12.1 1.5q1.35 3.1 1.6 6 .5 1.2.05 1.35L13.7 7.5Q12.95 5.55 9.95.85 6.9-3.9 3.15-6.4L.25-7.8m-6.65 4-.25 1.35.05 1.3-2.25.6L-6.4-3.8m2.1-1.05q.65.3 1.2 2.05l-.85.3-.35-2.35m1.8 1.7-.75-1.95 1.45-.15q.25 0 .05 1.95l-.75.15m4.2-.7-1.3.1-.7-1.3 2 1.2M-.7-13.4.4-9.35q-.7-.95-3.15.5L-.7-13.4m1.95 4.2.25-1.6.85 1.95-1.1-.35M13.55.4l2.15 1.25q2.85 1.55 4.6 1.4-3 1.25-4.85.4L13.55.4m2.5 6.55q1.65 2.65 4.35 2.2-2.25 1.3-4.45-.85l.1-1.35m-.9 3.85.7-1q1.35 3.35 3.7 3.6-1 .1-2.65-1-1.5-1-1.75-1.6" transform="translate(20.45 13.4)"/><path d="M12.5.05q3.7 4.25 2.75 9.4Q13.05.8 12.5.05m-26.2-2.8 4.25.1q-1.05.5-1.9 2.15L-11.9.9q.15-.95-1.8-3.65m3.3 2.2 1-.85q-1.35 2.2.5 7.35-.95-.75-1.95-3.35-.65-1.65.45-3.15m-1.15 9.85-.65-2.75q-.75-3.8.2-4.75l.45 7.5m-8.9-1.55q4.25.3 7.05-4l-.5 2.55q-1.8 2.85-6.55 1.45m1.4 4.1 4.85-3.05q.5 2.7-4.85 3.05" transform="translate(20.45 13.4)"/></g></defs></svg>

<?xml version="1.0" encoding="UTF-8" standalone="no"?>
<svg xmlns:xlink="http://www.w3.org/1999/xlink" height="92.9px" width="100.7px" xmlns="http://www.w3.org/2000/svg">
  <g transform="matrix(1.0, 0.0, 0.0, 1.0, 38.65, 49.75)">
    <use height="32.45" transform="matrix(1.0, 0.0, 0.0, 1.0, -23.85, -10.8)" width="48.15" xlink:href="#sprite0"/>
  </g>
  <defs>
    <g id="sprite0" transform="matrix(1.0, 0.0, 0.0, 1.0, 24.05, 16.2)">
      <use height="19.8" transform="matrix(1.0, 0.0, 0.0, 1.0, -14.55, -5.0)" width="28.95" xlink:href="#sprite1"/>
      <use height="32.45" transform="matrix(1.0, 0.0, 0.0, 1.0, -24.05, -16.2)" width="48.15" xlink:href="#sprite2"/>
      <use height="29.65" transform="matrix(1.0, 0.0, 0.0, 1.0, -22.45, -14.2)" width="45.05" xlink:href="#sprite3"/>
      <use height="26.8" transform="matrix(1.0, 0.0, 0.0, 1.0, -20.8, -11.9)" width="40.85" xlink:href="#sprite4"/>
      <use height="23.85" transform="matrix(1.0, 0.0, 0.0, 1.0, -17.85, -9.8)" width="35.85" xlink:href="#sprite5"/>
    </g>
    <g id="sprite1" transform="matrix(1.0, 0.0, 0.0, 1.0, 14.5, 9.9)">
      <use height="19.8" transform="matrix(1.0, 0.0, 0.0, 1.0, -14.5, -9.9)" width="28.95" xlink:href="#shape0"/>
    </g>
    <g id="shape0" transform="matrix(1.0, 0.0, 0.0, 1.0, 14.5, 9.9)">
      <path d="M2.35 -6.15 L0.1 -5.95 -1.15 -6.95 -1.15 -5.65 -4.95 -4.55 -5.5 -5.55 -5.9 -3.45 -9.1 -2.8 -8.25 4.45 -11.0 2.35 Q-11.3 3.4 -10.8 6.6 -10.35 9.25 -10.75 9.05 -11.6 8.6 -13.35 5.8 -13.4 6.55 -14.0 7.7 L-14.5 5.4 Q-12.9 -1.4 -8.3 -5.9 -2.9 -11.25 3.75 -9.45 9.8 -7.85 12.7 -0.8 14.2 2.75 14.45 5.95 L13.9 9.55 Q13.1 10.6 12.9 8.3 12.75 5.95 8.5 -1.9 8.35 2.45 8.0 0.85 7.8 -0.1 5.05 -3.25 L2.35 -6.15" fill="#8c5103" fill-rule="evenodd" stroke="none"/>
    </g>
    <g id="sprite2" transform="matrix(1.0, 0.0, 0.0, 1.0, 24.05, 16.2)">
      <use height="32.45" transform="matrix(1.0, 0.0, 0.0, 1.0, -24.05, -16.2)" width="48.15" xlink:href="#shape1"/>
    </g>
    <g id="shape1" transform="matrix(1.0, 0.0, 0.0, 1.0, 24.05, 16.2)">
      <path d="M0.15 -13.5 Q0.5 -11.9 0.7 -12.05 L2.05 -13.9 Q1.8 -12.95 2.6 -10.4 3.3 -8.25 3.7 -7.75 4.45 -6.7 7.95 -4.4 L14.45 0.95 Q18.2 3.45 23.3 3.15 23.15 4.05 20.95 5.35 19.0 6.5 18.2 6.6 L17.15 6.6 Q16.75 6.75 17.3 7.75 18.1 9.4 24.1 8.7 23.8 10.85 21.2 12.0 19.2 12.8 19.45 12.95 20.6 13.6 23.65 14.15 21.7 17.5 15.65 15.5 15.3 15.45 14.75 14.4 14.25 13.35 14.3 12.85 14.35 12.05 12.0 6.8 9.35 0.85 7.15 -1.8 2.6 -7.3 -6.15 -2.35 -10.6 0.15 -14.2 9.9 L-14.25 12.25 Q-14.35 14.05 -14.8 14.2 -18.7 15.6 -22.7 13.45 -21.45 12.85 -18.3 10.9 L-21.15 10.6 Q-22.85 10.05 -24.05 6.5 -22.9 8.3 -19.2 7.35 -17.15 6.85 -15.45 4.4 -13.85 2.15 -14.4 1.4 L-16.45 -4.3 Q-16.3 -3.8 -12.35 -2.8 -9.85 -2.2 -5.85 -6.4 -5.45 -6.85 -2.6 -12.15 -0.1 -16.85 -0.15 -16.1 -0.25 -15.15 0.15 -13.5" fill="#000000" fill-rule="evenodd" stroke="none"/>
    </g>
    <g id="sprite3" transform="matrix(1.0, 0.0, 0.0, 1.0, 22.5, 14.8)">
      <use height="29.65" transform="matrix(1.0, 0.0, 0.0, 1.0, -22.5, -14.8)" width="45.05" xlink:href="#shape2"/>
    </g>
    <g id="shape2" transform="matrix(1.0, 0.0, 0.0, 1.0, 22.5, 14.8)">
      <path d="M0.55 -10.2 Q1.0 -10.3 1.4 -12.65 1.4 -9.15 3.5 -6.95 4.35 -6.1 6.2 -5.15 8.0 -4.15 9.5 -2.65 14.75 2.7 19.05 3.3 L21.95 3.05 19.8 4.65 Q18.4 5.35 16.5 5.15 15.5 5.0 15.65 6.25 16.1 10.75 22.55 8.9 20.7 11.8 18.05 11.2 L15.8 10.0 Q16.55 13.9 22.3 13.8 21.45 14.6 19.6 14.8 17.75 14.95 16.55 14.35 15.1 13.55 14.35 11.75 L13.9 10.05 13.55 13.1 Q13.05 8.2 8.8 2.05 L6.45 -0.9 Q7.15 0.75 7.9 4.1 7.3 2.55 2.15 -2.7 L-0.25 -2.4 -1.35 -4.35 -1.75 -2.1 -4.85 -0.9 Q-5.0 -3.5 -5.35 -3.4 L-6.7 0.15 -9.7 1.1 -8.85 7.9 Q-11.2 4.9 -11.35 5.15 -12.65 8.25 -10.95 12.35 -11.75 12.05 -12.65 9.8 L-13.35 7.6 -14.55 11.55 Q-15.6 13.85 -21.25 12.95 -20.7 13.05 -16.1 10.2 -15.6 8.9 -17.7 9.4 -21.45 10.3 -22.5 7.65 -22.1 8.5 -19.85 8.1 -16.5 7.5 -13.75 3.35 -12.8 1.9 -13.55 0.15 L-14.8 -2.15 Q-15.6 -3.6 -14.95 -3.05 -14.1 -2.25 -11.35 -2.25 -9.85 -2.25 -8.25 -3.7 L-5.3 -6.6 Q-3.05 -8.55 -0.8 -14.8 -0.85 -14.2 -0.3 -12.2 0.25 -10.15 0.55 -10.2" fill="#e28d05" fill-rule="evenodd" stroke="none"/>
    </g>
    <g id="sprite4" transform="matrix(1.0, 0.0, 0.0, 1.0, 20.45, 13.4)">
      <use height="26.8" transform="matrix(1.0, 0.0, 0.0, 1.0, -20.45, -13.4)" width="40.85" xlink:href="#shape3"/>
    </g>
    <g id="shape3" transform="matrix(1.0, 0.0, 0.0, 1.0, 20.45, 13.4)">
      <path d="M-2.7 -7.3 Q-0.05 -8.25 2.7 -6.05 7.05 -2.55 7.45 1.15 6.25 -0.75 4.15 -2.6 -0.05 -6.3 -4.35 -6.0 -4.65 -5.95 -4.1 -6.5 -3.55 -7.0 -2.7 -7.3" fill="#f9ca03" fill-rule="evenodd" stroke="none"/>
      <path d="M0.25 -7.8 Q8.8 -6.15 12.1 1.5 13.45 4.6 13.7 7.5 14.2 8.7 13.75 8.85 L13.7 7.5 Q12.95 5.55 9.95 0.85 6.9 -3.9 3.15 -6.4 L0.25 -7.8" fill="#f9ca03" fill-rule="evenodd" stroke="none"/>
      <path d="M-6.4 -3.8 L-6.65 -2.45 -6.6 -1.15 -8.85 -0.55 -6.4 -3.8" fill="#f9ca03" fill-rule="evenodd" stroke="none"/>
      <path d="M-4.3 -4.85 Q-3.65 -4.55 -3.1 -2.8 L-3.95 -2.5 -4.3 -4.85" fill="#f9ca03" fill-rule="evenodd" stroke="none"/>
      <path d="M-2.5 -3.15 L-3.25 -5.1 -1.8 -5.25 Q-1.55 -5.25 -1.75 -3.3 L-2.5 -3.15" fill="#f9ca03" fill-rule="evenodd" stroke="none"/>
      <path d="M1.7 -3.85 L0.4 -3.75 -0.3 -5.05 1.7 -3.85" fill="#f9ca03" fill-rule="evenodd" stroke="none"/>
      <path d="M-0.7 -13.4 L0.4 -9.35 Q-0.3 -10.3 -2.75 -8.85 L-0.7 -13.4" fill="#f9ca03" fill-rule="evenodd" stroke="none"/>
      <path d="M1.25 -9.2 L1.5 -10.8 2.35 -8.85 1.25 -9.2" fill="#f9ca03" fill-rule="evenodd" stroke="none"/>
      <path d="M13.55 0.4 L15.7 1.65 Q18.55 3.2 20.3 3.05 17.3 4.3 15.45 3.45 L13.55 0.4" fill="#f9ca03" fill-rule="evenodd" stroke="none"/>
      <path d="M16.05 6.95 Q17.7 9.6 20.4 9.15 18.15 10.45 15.95 8.3 L16.05 6.95" fill="#f9ca03" fill-rule="evenodd" stroke="none"/>
      <path d="M15.15 10.8 L15.85 9.8 Q17.2 13.15 19.55 13.4 18.55 13.5 16.9 12.4 15.4 11.4 15.15 10.8" fill="#f9ca03" fill-rule="evenodd" stroke="none"/>
      <path d="M12.5 0.05 Q16.2 4.3 15.25 9.45 13.05 0.8 12.5 0.05" fill="#f9ca03" fill-rule="evenodd" stroke="none"/>
      <path d="M-13.7 -2.75 L-9.45 -2.65 Q-10.5 -2.15 -11.35 -0.5 L-11.9 0.9 Q-11.75 -0.05 -13.7 -2.75" fill="#f9ca03" fill-rule="evenodd" stroke="none"/>
      <path d="M-10.4 -0.55 L-9.4 -1.4 Q-10.75 0.8 -8.9 5.95 -9.85 5.2 -10.85 2.6 -11.5 0.95 -10.4 -0.55" fill="#f9ca03" fill-rule="evenodd" stroke="none"/>
      <path d="M-11.55 9.3 L-12.2 6.55 Q-12.95 2.75 -12.0 1.8 L-11.55 9.3" fill="#f9ca03" fill-rule="evenodd" stroke="none"/>
      <path d="M-20.45 7.75 Q-16.2 8.05 -13.4 3.75 L-13.9 6.3 Q-15.7 9.15 -20.45 7.75" fill="#f9ca03" fill-rule="evenodd" stroke="none"/>
      <path d="M-19.05 11.85 L-14.2 8.8 Q-13.7 11.5 -19.05 11.85" fill="#f9ca03" fill-rule="evenodd" stroke="none"/>
    </g>
    <g id="sprite5" transform="matrix(1.0, 0.0, 0.0, 1.0, 17.9, 11.9)">
      <use height="23.85" transform="matrix(1.0, 0.0, 0.0, 1.0, -17.9, -11.9)" width="35.85" xlink:href="#shape4"/>
    </g>
    <g id="shape4" transform="matrix(1.0, 0.0, 0.0, 1.0, 17.9, 11.9)">
      <path d="M2.75 -4.0 Q2.0 -4.9 -0.1 -5.75 -0.5 -5.9 0.65 -6.45 L2.3 -6.65 Q3.1 -6.15 4.55 -4.45 L3.75 -4.55 Q2.9 -4.55 2.75 -4.0" fill="#f9ebb2" fill-rule="evenodd" stroke="none"/>
      <path d="M3.45 -6.5 L5.9 -6.05 Q7.55 -4.95 8.25 -4.15 L5.8 -4.4 Q4.9 -5.55 3.45 -6.5" fill="#f9ebb2" fill-rule="evenodd" stroke="none"/>
      <path d="M13.2 2.7 L14.1 3.15 14.65 4.75 13.7 4.6 Q13.75 3.9 13.2 2.7" fill="#f9ebb2" fill-rule="evenodd" stroke="none"/>
      <path d="M12.3 2.5 L12.9 4.7 Q12.05 4.45 11.85 4.05 L10.35 1.45 12.3 2.5" fill="#f9ebb2" fill-rule="evenodd" stroke="none"/>
      <path d="M14.9 0.9 L17.2 2.0 17.95 3.0 16.0 3.1 14.9 0.9" fill="#f9ebb2" fill-rule="evenodd" stroke="none"/>
      <path d="M16.3 8.3 L16.65 7.6 17.85 8.35 17.65 8.85 16.3 8.3" fill="#f9ebb2" fill-rule="evenodd" stroke="none"/>
      <path d="M15.2 10.8 L15.85 10.2 16.9 11.55 16.6 11.95 15.2 10.8" fill="#f9ebb2" fill-rule="evenodd" stroke="none"/>
      <path d="M0.85 -4.7 L-0.1 -4.55 -0.35 -4.95 -0.3 -5.0 0.2 -5.05 0.85 -4.7" fill="#f9ebb2" fill-rule="evenodd" stroke="none"/>
      <path d="M-3.45 -5.15 L-2.1 -5.1 -2.15 -4.35 -3.2 -4.3 -3.45 -5.15" fill="#f9ebb2" fill-rule="evenodd" stroke="none"/>
      <path d="M-4.15 -4.85 L-3.8 -4.15 -3.9 -4.15 -4.55 -3.75 -4.7 -4.65 -4.15 -4.85" fill="#f9ebb2" fill-rule="evenodd" stroke="none"/>
      <path d="M-7.0 -2.6 L-8.75 -1.95 -7.6 -3.45 -7.0 -3.6 -7.0 -2.6" fill="#f9ebb2" fill-rule="evenodd" stroke="none"/>
      <path d="M-11.5 1.15 L-11.0 0.55 -10.35 0.5 -10.2 2.15 -10.95 2.85 -11.5 1.15" fill="#f9ebb2" fill-rule="evenodd" stroke="none"/>
      <path d="M-12.4 2.15 L-12.3 4.4 Q-12.6 5.35 -12.75 5.15 L-12.95 3.15 -12.4 2.15" fill="#f9ebb2" fill-rule="evenodd" stroke="none"/>
      <path d="M-13.2 -1.8 Q-13.2 -3.0 -12.85 -3.05 L-11.3 -3.1 -12.55 -0.6 -13.2 -1.8" fill="#f9ebb2" fill-rule="evenodd" stroke="none"/>
      <path d="M-16.3 5.7 L-14.65 4.2 -14.8 6.3 Q-15.25 6.8 -16.45 7.25 L-16.3 5.7" fill="#f9ebb2" fill-rule="evenodd" stroke="none"/>
      <path d="M-16.75 9.55 L-15.0 8.45 -16.2 10.5 -17.9 11.05 -16.75 9.55" fill="#f9ebb2" fill-rule="evenodd" stroke="none"/>
      <path d="M1.0 -10.6 L1.35 -10.55 1.65 -10.0 0.85 -10.05 1.0 -10.6" fill="#f9ebb2" fill-rule="evenodd" stroke="none"/>
      <path d="M-2.2 -11.75 Q-1.35 -12.2 -0.65 -11.4 -0.2 -11.0 -0.15 -10.4 L-2.6 -10.7 -2.2 -11.75" fill="#f9ebb2" fill-rule="evenodd" stroke="none"/>
    </g>
  </defs>
</svg>
